packages/core/src/svgs/tokens/branded/ANGLE.svg

<svg width="24" height="24" viewBox="0 0 24 24" fill="none" xmlns="http://www.w3.org/2000/svg">
<path d="M11.9058 8.02236C11.9613 7.97236 12.0447 7.97236 12.0947 8.02236L20.4279 16.1667C20.4533 16.1926 20.4676 16.2275 20.4676 16.2639C20.4676 16.3002 20.4533 16.3352 20.4279 16.3611L16.2613 20.2944C16.2356 20.3181 16.2019 20.3313 16.1668 20.3313C16.1318 20.3313 16.0981 20.3181 16.0724 20.2944L12.0003 16.461L7.92813 20.2944C7.90245 20.3181 7.86872 20.3313 7.83368 20.3313C7.79866 20.3313 7.76493 20.3181 7.73925 20.2944L3.57266 16.3611C3.54722 16.3352 3.53296 16.3002 3.53296 16.2639C3.53296 16.2275 3.54722 16.1926 3.57266 16.1667L11.9058 8.02236ZM12.0003 8.31681L3.8671 16.261L7.83368 19.9999L11.9058 16.1667C11.9613 16.1111 12.0447 16.1111 12.0947 16.1667L16.1668 19.9999L20.1334 16.261L12.0003 8.31681Z" fill="#131620"/>
<path d="M12 16.261L7.83331 20.3332L7 18.3166L12 13.4333V16.2665V16.261Z" fill="#131620"/>
<path d="M3.66688 16.261L7.83345 20.3332L7.00015 18.3166L2.00024 13.4333L3.66688 16.2665V16.261Z" fill="#F2E2D8"/>
<path d="M2.05582 13.3222C2.11138 13.2833 2.1836 13.2889 2.23359 13.3333L7.0946 18.2221C7.11127 18.2332 7.12238 18.2498 7.12794 18.2666L7.96126 20.1388C7.97339 20.1679 7.97518 20.2005 7.96634 20.2308C7.9575 20.2611 7.93855 20.2876 7.91264 20.3057C7.88671 20.3239 7.85538 20.3327 7.82382 20.3306C7.79224 20.3285 7.76234 20.3157 7.73904 20.2943L3.57246 16.361C3.56193 16.3531 3.55257 16.3438 3.54468 16.3333L2.01694 13.4999C2.00094 13.4706 1.99607 13.4365 2.00321 13.4039C2.01035 13.3712 2.02903 13.3422 2.05582 13.3222ZM2.78915 14.2667L3.77801 16.1778L7.4446 19.7609L6.88351 18.3998L2.78915 14.2611V14.2667Z" fill="#131620"/>
<path d="M12.0002 16.261L16.1667 20.3332L17.0001 18.3166L12.0002 13.4333V16.2665V16.261Z" fill="#FFE6D6"/>
<path d="M12.0835 13.4056C12.1391 13.3833 12.1946 13.4 12.2334 13.4389L17.0945 18.2165C17.1389 18.2554 17.1501 18.3166 17.1279 18.3721L16.2834 20.2499C16.2744 20.2701 16.2607 20.288 16.2433 20.3017C16.226 20.3156 16.2056 20.3252 16.1838 20.3295C16.162 20.3339 16.1395 20.333 16.1182 20.3267C16.0968 20.3206 16.0774 20.3095 16.0612 20.2943L12.0446 16.461C12.0181 16.4365 12.0022 16.4027 12.0002 16.3666V13.5334C12.0002 13.4778 12.0336 13.4277 12.0835 13.4056ZM12.0002 13.6666V16.0555L16.1112 19.9499L16.8334 18.3499L12.0002 13.6666Z" fill="#131620"/>
<path d="M20.3333 16.261L16.1667 20.3332L17.0001 18.3166L22 13.4333L20.3333 16.2665V16.261Z" fill="#131620"/>
<path d="M2.00024 13.4333L12.0001 3.66681L21.9998 13.4333L16.9999 18.322L12.0001 13.4333L7.00015 18.322L2.00024 13.4333Z" fill="url(#paint0_linear_364_5877)"/>
<path d="M11.9059 3.70575C11.9315 3.68194 11.9652 3.6687 12.0002 3.6687C12.0354 3.6687 12.0691 3.68194 12.0947 3.70575L21.9556 13.3334C21.9691 13.3463 21.9798 13.3618 21.9871 13.379C21.9943 13.3962 21.9981 13.4146 21.9981 13.4333C21.9981 13.452 21.9943 13.4705 21.9871 13.4876C21.9798 13.5049 21.9691 13.5204 21.9556 13.5334L17.0946 18.4166C17.0391 18.472 16.9557 18.472 16.9057 18.4166L12.0002 13.6278L7.1004 18.4166C7.04484 18.472 6.95595 18.472 6.90595 18.4166L2.04495 13.5334C2.0315 13.5204 2.02081 13.5049 2.01351 13.4876C2.00621 13.4705 2.00244 13.452 2.00244 13.4333C2.00244 13.4146 2.00621 13.3962 2.01351 13.379C2.02081 13.3618 2.0315 13.3463 2.04495 13.3334L11.9059 3.70575ZM12.0002 4.0002L2.33383 13.4333L7.0004 18.1222L11.9059 13.3334C11.9615 13.2778 12.0447 13.2778 12.0947 13.3334L17.0002 18.1222L21.6668 13.4333L12.0002 4.0002Z" fill="#131620"/>
<defs>
<linearGradient id="paint0_linear_364_5877" x1="11.9998" y1="3.66681" x2="11.9998" y2="20.3268" gradientUnits="userSpaceOnUse">
<stop stop-color="#F6958C"/>
<stop offset="1" stop-color="#FFCAA3"/>
</linearGradient>
</defs>
</svg>

<svg xmlns="http://www.w3.org/2000/svg" width="24" height="24" fill="none" viewBox="0 0 24 24">
    <path fill="#131620" d="M11.906 8.022a.14.14 0 0 1 .189 0l8.333 8.145a.14.14 0 0 1 0 .194l-4.167 3.933a.14.14 0 0 1-.189 0L12 16.461l-4.072 3.833a.14.14 0 0 1-.189 0l-4.166-3.933a.14.14 0 0 1 0-.194zm.094.295L3.867 16.26 7.834 20l4.072-3.833c.055-.056.139-.056.189 0L16.167 20l3.966-3.739z"/>
    <path fill="#131620" d="m12 16.261-4.167 4.072L7 18.317l5-4.884v2.834z"/>
    <path fill="#F2E2D8" d="m3.667 16.261 4.166 4.072L7 18.317l-5-4.884 1.667 2.834z"/>
    <path fill="#131620" d="M2.056 13.322a.14.14 0 0 1 .178.011l4.86 4.89a.1.1 0 0 1 .034.044l.833 1.872a.139.139 0 0 1-.222.155l-4.167-3.933a.1.1 0 0 1-.027-.028L2.017 13.5a.14.14 0 0 1 .039-.178m.733.945.989 1.91 3.667 3.584-.561-1.361-4.095-4.139z"/>
    <path fill="#FFE6D6" d="m12 16.261 4.167 4.072.833-2.016-5-4.884v2.834z"/>
    <path fill="#131620" d="M12.084 13.406a.14.14 0 0 1 .15.033l4.86 4.778c.045.038.056.1.034.155l-.845 1.878a.14.14 0 0 1-.1.08.14.14 0 0 1-.123-.035l-4.015-3.834a.14.14 0 0 1-.045-.094v-2.834a.14.14 0 0 1 .084-.127m-.084.26v2.39l4.111 3.894.722-1.6z"/>
    <path fill="#131620" d="m20.333 16.261-4.166 4.072.833-2.016 5-4.884-1.667 2.834z"/>
    <path fill="url(#ANGLE__a)" d="m2 13.433 10-9.766 10 9.766-5 4.889-5-4.889-5 4.889z"/>
    <path fill="#131620" d="M11.906 3.706a.14.14 0 0 1 .189 0l9.86 9.627a.14.14 0 0 1 .032.155.14.14 0 0 1-.031.045l-4.861 4.884c-.056.055-.14.055-.19 0L12 13.627l-4.9 4.79a.134.134 0 0 1-.194 0l-4.861-4.884a.14.14 0 0 1 0-.2zM12 4l-9.666 9.433L7 18.123l4.906-4.79c.055-.055.139-.055.189 0L17 18.123l4.667-4.69z"/>
    <defs>
        <linearGradient id="ANGLE__a" x1="12" x2="12" y1="3.667" y2="20.327" gradientUnits="userSpaceOnUse">
            <stop stop-color="#F6958C"/>
            <stop offset="1" stop-color="#FFCAA3"/>
        </linearGradient>
    </defs>
</svg>
